Origami/64x64/apps/teeworlds.svg

<svg width="64" height="64" version="1.1" viewBox="0 0 64 64" xmlns="http://www.w3.org/2000/svg">
 <path d="m55.199998 55.491c-5e-3 4.109-1.021444 5.479172-13.940866 5.47917-3.672826 0-8.143688 0.322542-10.497456-1.15358-2.22251-1.393804-1.420902-3.439332-1.420904-5.521056 0-4.286396 4.19967-7.295534 11.340498-7.295534 7.14083 0 14.52406 4.2 14.518728 8.491z" style="opacity:.2"/>
 <path d="m55.199998 54.491c-5e-3 4.109-1.021444 5.479172-13.940866 5.47917-3.672826 0-8.143688 0.322542-10.497456-1.15358-2.22251-1.393804-1.420902-3.439332-1.420904-5.521056 0-4.286396 4.19967-7.295534 11.340498-7.295534 7.14083 0 14.52406 4.2 14.518728 8.491z" style="fill:#d48003"/>
 <path d="m32 4.9999998a26 26 0 0 0 -26 26 26 26 0 0 0 26 26 26 26 0 0 0 26 -26 26 26 0 0 0 -26 -26z" style="opacity:.2"/>
 <path d="m32 3.9999998a26 26 0 0 0 -26 26 26 26 0 0 0 26 26 26 26 0 0 0 26 -26 26 26 0 0 0 -26 -26z" style="fill:#fdc33b"/>
 <ellipse cx="28" cy="27" rx="4" ry="6" style="opacity:.1"/>
 <path d="m33.999998 55.491c-5e-3 4.109-1.021446 5.479172-13.940868 5.47917-3.672823 0-8.143686 0.322542-10.497455-1.15358-2.222509-1.393804-1.420903-3.439332-1.4209034-5.521056-6e-7 -4.286396 4.1996714-7.295534 11.340497-7.295534 7.140829 0 14.524059 4.2 14.518729 8.491z" style="opacity:.2"/>
 <path d="m33.999998 54.491c-5e-3 4.109-1.021446 5.479172-13.940868 5.47917-3.672823 0-8.143686 0.322542-10.497455-1.15358-2.222509-1.393804-1.420903-3.439332-1.4209034-5.521056-6e-7 -4.286396 4.1996714-7.295534 11.340497-7.295534 7.140829 0 14.524059 4.2 14.518729 8.491z" style="fill:#d48003"/>
 <ellipse cx="28" cy="26" rx="4" ry="6" style="fill:#414141"/>
 <ellipse cx="40" cy="27" rx="4" ry="6" style="opacity:.1"/>
 <ellipse cx="40" cy="26" rx="4" ry="6" style="fill:#414141"/>
 <path d="M 32 4 A 26 26 0 0 0 6 30 A 26 26 0 0 0 6.0214844 30.40625 A 26 26 0 0 1 32 5 A 26 26 0 0 1 57.978516 30.576172 A 26 26 0 0 0 58 30 A 26 26 0 0 0 32 4 z" style="fill:#ffffff;opacity:.2"/>
</svg>

<svg xmlns="http://www.w3.org/2000/svg" width="64" height="64" version="1.1" viewBox="0 0 64 64">
 <path style="opacity:0.2" d="m 55.199998,55.491 c -0.005,4.109 -1.021444,5.479172 -13.940866,5.47917 -3.672826,0 -8.143688,0.322542 -10.497456,-1.15358 -2.22251,-1.393804 -1.420902,-3.439332 -1.420904,-5.521056 C 29.340772,50.009138 33.540442,47 40.68127,47 c 7.14083,0 14.52406,4.2 14.518728,8.491 z"/>
 <path style="fill:#d48003" d="m 55.199998,54.491 c -0.005,4.109 -1.021444,5.479172 -13.940866,5.47917 -3.672826,0 -8.143688,0.322542 -10.497456,-1.15358 -2.22251,-1.393804 -1.420902,-3.439332 -1.420904,-5.521056 C 29.340772,49.009138 33.540442,46 40.68127,46 c 7.14083,0 14.52406,4.2 14.518728,8.491 z"/>
 <path style="opacity:0.2" d="M 32,4.9999998 A 26,26 0 0 0 6.0000002,31 26,26 0 0 0 32,57 26,26 0 0 0 58,31 26,26 0 0 0 32,4.9999998 Z"/>
 <path style="fill:#fdc33b" d="M 32,3.9999998 A 26,26 0 0 0 6.0000002,30 26,26 0 0 0 32,56 26,26 0 0 0 58,30 26,26 0 0 0 32,3.9999998 Z"/>
 <ellipse style="opacity:0.1" cx="28" cy="27" rx="4" ry="6"/>
 <path style="opacity:0.2" d="m 33.999998,55.491 c -0.005,4.109 -1.021446,5.479172 -13.940868,5.47917 -3.672823,0 -8.143686,0.322542 -10.497455,-1.15358 C 7.339166,58.422786 8.140772,56.377258 8.1407716,54.295534 8.140771,50.009138 12.340443,47 19.481269,47 c 7.140829,0 14.524059,4.2 14.518729,8.491 z"/>
 <path style="fill:#d48003" d="m 33.999998,54.491 c -0.005,4.109 -1.021446,5.479172 -13.940868,5.47917 -3.672823,0 -8.143686,0.322542 -10.497455,-1.15358 C 7.339166,57.422786 8.140772,55.377258 8.1407716,53.295534 8.140771,49.009138 12.340443,46 19.481269,46 c 7.140829,0 14.524059,4.2 14.518729,8.491 z"/>
 <ellipse style="fill:#414141" cx="28" cy="26" rx="4" ry="6"/>
 <ellipse style="opacity:0.1" cx="40" cy="27" rx="4" ry="6"/>
 <ellipse style="fill:#414141" cx="40" cy="26" rx="4" ry="6"/>
 <path style="opacity:0.2;fill:#ffffff" d="M 32 4 A 26 26 0 0 0 6 30 A 26 26 0 0 0 6.0214844 30.40625 A 26 26 0 0 1 32 5 A 26 26 0 0 1 57.978516 30.576172 A 26 26 0 0 0 58 30 A 26 26 0 0 0 32 4 z"/>
</svg>
